apps/web/assets/svg/messages.svg

<svg
	width="24"
	height="24"
	viewBox="0 0 24 24"
	fill="none"
	xmlns="http://www.w3.org/2000/svg"
>
	<path
		d="M21 1.5V7.5H7.5V17.5664L3 22.0664V16.5H0V1.5H21ZM9 9H24V19.5H21V23.5664L16.9336 19.5H9V9Z"
		fill="currentColor"
	/>
</svg>

<svg xmlns="http://www.w3.org/2000/svg" width="24" height="24" fill="none" viewBox="0 0 24 24"><path fill="currentColor" d="M21 1.5v6H7.5v10.066l-4.5 4.5V16.5H0v-15h21ZM9 9h15v10.5h-3v4.066L16.934 19.5H9V9Z"/></svg>
